data/wix-madefor-display.svg

<svg width="134.53" height="17.64" viewBox="0 0 134.53 17.64" xmlns="http://www.w3.org/2000/svg"><path transform="translate(0 14.112) scale(.014 -.014)" d="M793 0H700L522 625H530L352 0H259L40 715H123L323 40H290L483 715H570L763 40H733L933 715H1012Z"/><path transform="translate(14.728 14.112) scale(.014 -.014)" d="m144 0h-74v492h74zm-37 624q-22 0-38 15.5t-16 37.5q0 23 16 38.5t38 15.5q23 0 38.5-15.5t15.5-38.5q0-22-15.5-37.5t-38.5-15.5z"/><path transform="translate(17.724 14.112) scale(.014 -.014)" d="M99 0H12L206 255L30 492H116L254 298L392 492H477L302 255L496 0H408L254 209Z"/><path transform="translate(27.566 14.112) scale(.014 -.014)" d="M478 60H420L132 662H158V0H83V715H184L474 107H426L716 715H815V0H740V662H766Z"/><path transform="translate(40.166 14.112) scale(.014 -.014)" d="m487 0h-71v96l-1 28v184q0 62-40 99t-108 37q-49 0-88.5-21t-69.5-57l-52 50q41 44 92.5 68t117.5 24 115.5-24.5 77-68.5 27.5-104zm-259-16q-56 0-98.5 20.5t-66 55.5-23.5 80q0 52 29 88.5t79.5 55.5 114.5 19h162v-60h-152q-67 0-111.5-24.5t-44.5-76.5q0-44 33-70t87-26q52 0 94 20.5t67.5 57.5 28.5 85l30-17q0-60-29.5-107t-81.5-74-118-27z"/><path transform="translate(47.866 14.112) scale(.014 -.014)" d="m563 0h-73v134l-1 1v96q0 63-23 110.5t-64.5 74.5-95.5 27q-53 0-94-25.5t-64-70-23-101.5 23.5-101.5 65-70 95.5-25.5q51 0 92.5 21t67.5 58.5 30 84.5l14-20q8-59-18-106.5t-76.5-75-117.5-27.5q-74 0-131.5 34t-90 93-32.5 135q0 75 32.5 134t89 93.5 128.5 34.5q54 0 98.5-20.5t74.5-57.5 38-87h-19v377h74z"/><path transform="translate(56.728 14.112) scale(.014 -.014)" d="m486 140 52-49q-39-50-94-78.5t-126-28.5q-78 0-139.5 34t-96.5 93-35 135 33.5 135 92.5 93 134 34q72 0 127.5-33.5t87.5-91.5 32-134v-6h-76v6q0 58-22.5 101.5t-61 68-87.5 24.5q-54 0-95-25t-64-69-23-102 25-103 68.5-70 100.5-25q104 0 167 91zm68 80h-445v61h429l16-32z"/><path transform="translate(65.142 14.112) scale(.014 -.014)" d="m206 0h-74v601q0 119 119 119h99v-62h-83q-32 0-46.5-14.5t-14.5-46.5zm144 429h-320v63h320z"/><path transform="translate(70.462 14.112) scale(.014 -.014)" d="m307-16q-75 0-134 34t-92.5 93-33.5 135 33.5 135 92.5 93 134 34q76 0 134.5-34t92-93 33.5-135-33.5-135-92-93-134.5-34zm0 65q54 0 95 25t64 69.5 23 102.5-23 102.5-64 69.5-95 25-95-25-64-69.5-23-102.5 23-102.5 64-69.5 95-25z"/><path transform="translate(79.058 14.112) scale(.014 -.014)" d="m334 500v-72h-20q-44 0-83-23t-63-72-24-127v-206h-74v492h73v-156h-13q12 60 42 96t69.5 52 81.5 16z"/><path transform="translate(86.884 14.112) scale(.014 -.014)" d="m85 0v715h231q110 0 193.5-46t130.5-126.5 47-184.5-47-185-130.5-127-193.5-46zm77 70h154q89 0 154.5 36t101 101 35.5 151-35.5 150.5-101 100.5-154.5 36h-154z"/><path transform="translate(97.258 14.112) scale(.014 -.014)" d="m144 0h-74v492h74zm-37 624q-22 0-38 15.5t-16 37.5q0 23 16 38.5t38 15.5q23 0 38.5-15.5t15.5-38.5q0-22-15.5-37.5t-38.5-15.5z"/><path transform="translate(100.25 14.112) scale(.014 -.014)" d="m28 76 52 50q35-37 79-58t99-21q60 0 98.5 25.5t38.5 65.5q0 35-32.5 54.5t-109.5 30.5q-112 16-157.5 48.5t-45.5 87.5q0 45 26 78.5t72 52 105 18.5q66 0 118-24t92-68l-52-50q-30 37-69 58t-89 21q-55 0-91-23t-36-61q0-28 30.5-44.5t103.5-26.5q116-16 163.5-51.5t47.5-98.5q0-46-27.5-81.5t-75.5-55-110-19.5q-72 0-128.5 24.5t-101.5 67.5z"/><path transform="translate(107.45 14.112) scale(.014 -.014)" d="m144-194h-74v686h73v-149h-18q9 49 39.5 86t76 58 98.5 21q72 0 128-34.5t87.5-93.5 31.5-134q0-76-32.5-135t-90-93-131.5-34q-67 0-117.5 27.5t-76 75-18.5 106.5l14 20q4-47 30-84.5t68-58.5 92-21q55 0 96 25.5t64.5 70 23.5 101.5-22.5 101.5-62.5 70-93 25.5q-54 0-96-27t-66-74.5-24-110.5z"/><path transform="translate(116.31 14.112) scale(.014 -.014)" d="m144 0h-74v720h74z"/><path transform="translate(119.31 14.112) scale(.014 -.014)" d="m487 0h-71v96l-1 28v184q0 62-40 99t-108 37q-49 0-88.5-21t-69.5-57l-52 50q41 44 92.5 68t117.5 24 115.5-24.5 77-68.5 27.5-104zm-259-16q-56 0-98.5 20.5t-66 55.5-23.5 80q0 52 29 88.5t79.5 55.5 114.5 19h162v-60h-152q-67 0-111.5-24.5t-44.5-76.5q0-44 33-70t87-26q52 0 94 20.5t67.5 57.5 28.5 85l30-17q0-60-29.5-107t-81.5-74-118-27z"/><path transform="translate(127.01 14.112) scale(.014 -.014)" d="m441 492h76l-250-581q-21-49-52-77t-94-28h-49v64h49q32 0 52.5 16t33.5 47l26 65-213 494h80l186-453h-32z"/></svg>

<?xml version="1.0" encoding="utf-8" ?>
<svg baseProfile="tiny" height="100%" version="1.2" width="100%" xmlns="http://www.w3.org/2000/svg" xmlns:ev="http://www.w3.org/2001/xml-events" xmlns:xlink="http://www.w3.org/1999/xlink"><defs /><g><path d="M793 0H700L522 625H530L352 0H259L40 715H123L323 40H290L483 715H570L763 40H733L933 715H1012Z" transform="translate(0.0, 72) scale(0.072, -0.072)" /><path d="M144 0H70V492H144ZM107 624Q85 624 69.0 639.5Q53 655 53 677Q53 700 69.0 715.5Q85 731 107 731Q130 731 145.5 715.5Q161 700 161 677Q161 655 145.5 639.5Q130 624 107 624Z" transform="translate(75.744, 72) scale(0.072, -0.072)" /><path d="M99 0H12L206 255L30 492H116L254 298L392 492H477L302 255L496 0H408L254 209Z" transform="translate(91.152, 72) scale(0.072, -0.072)" /><path d="M478 60H420L132 662H158V0H83V715H184L474 107H426L716 715H815V0H740V662H766Z" transform="translate(141.768, 72) scale(0.072, -0.072)" /><path d="M487 0H416V96L415 124V308Q415 370 375.0 407.0Q335 444 267 444Q218 444 178.5 423.0Q139 402 109 366L57 416Q98 460 149.5 484.0Q201 508 267 508Q333 508 382.5 483.5Q432 459 459.5 415.0Q487 371 487 311ZM228 -16Q172 -16 129.5 4.5Q87 25 63.5 60.0Q40 95 40 140Q40 192 69.0 228.5Q98 265 148.5 284.0Q199 303 263 303H425V243H273Q206 243 161.5 218.5Q117 194 117 142Q117 98 150.0 72.0Q183 46 237 46Q289 46 331.0 66.5Q373 87 398.5 124.0Q424 161 427 209L457 192Q457 132 427.5 85.0Q398 38 346.0 11.0Q294 -16 228 -16Z" transform="translate(206.56799999999998, 72) scale(0.072, -0.072)" /><path d="M563 0H490V134L489 135V231Q489 294 466.0 341.5Q443 389 401.5 416.0Q360 443 306 443Q253 443 212.0 417.5Q171 392 148.0 347.5Q125 303 125 246Q125 189 148.5 144.5Q172 100 213.5 74.5Q255 49 309 49Q360 49 401.5 70.0Q443 91 469.0 128.5Q495 166 499 213L513 193Q521 134 495.0 86.5Q469 39 418.5 11.5Q368 -16 301 -16Q227 -16 169.5 18.0Q112 52 79.5 111.0Q47 170 47 246Q47 321 79.5 380.0Q112 439 168.5 473.5Q225 508 297 508Q351 508 395.5 487.5Q440 467 470.0 430.0Q500 393 508 343H489V720H563Z" transform="translate(246.16799999999998, 72) scale(0.072, -0.072)" /><path d="M486 140 538 91Q499 41 444.0 12.5Q389 -16 318 -16Q240 -16 178.5 18.0Q117 52 82.0 111.0Q47 170 47 246Q47 322 80.5 381.0Q114 440 173.0 474.0Q232 508 307 508Q379 508 434.5 474.5Q490 441 522.0 383.0Q554 325 554 249V243H478V249Q478 307 455.5 350.5Q433 394 394.5 418.5Q356 443 307 443Q253 443 212.0 418.0Q171 393 148.0 349.0Q125 305 125 247Q125 189 150.0 144.0Q175 99 218.5 74.0Q262 49 319 49Q423 49 486 140ZM554 220H109V281H538L554 249Z" transform="translate(291.74399999999997, 72) scale(0.072, -0.072)" /><path d="M206 0H132V601Q132 720 251 720H350V658H267Q235 658 220.5 643.5Q206 629 206 597ZM350 429H30V492H350Z" transform="translate(335.01599999999996, 72) scale(0.072, -0.072)" /><path d="M307 -16Q232 -16 173.0 18.0Q114 52 80.5 111.0Q47 170 47 246Q47 322 80.5 381.0Q114 440 173.0 474.0Q232 508 307 508Q383 508 441.5 474.0Q500 440 533.5 381.0Q567 322 567 246Q567 170 533.5 111.0Q500 52 441.5 18.0Q383 -16 307 -16ZM307 49Q361 49 402.0 74.0Q443 99 466.0 143.5Q489 188 489 246Q489 304 466.0 348.5Q443 393 402.0 418.0Q361 443 307 443Q253 443 212.0 418.0Q171 393 148.0 348.5Q125 304 125 246Q125 188 148.0 143.5Q171 99 212.0 74.0Q253 49 307 49Z" transform="translate(362.376, 72) scale(0.072, -0.072)" /><path d="M334 500V428H314Q270 428 231.0 405.0Q192 382 168.0 333.0Q144 284 144 206V0H70V492H143V336H130Q142 396 172.0 432.0Q202 468 241.5 484.0Q281 500 323 500Z" transform="translate(406.58399999999995, 72) scale(0.072, -0.072)" /><path d="M85 0V715H316Q426 715 509.5 669.0Q593 623 640.0 542.5Q687 462 687 358Q687 254 640.0 173.0Q593 92 509.5 46.0Q426 0 316 0ZM162 70H316Q405 70 470.5 106.0Q536 142 571.5 207.0Q607 272 607 358Q607 444 571.5 508.5Q536 573 470.5 609.0Q405 645 316 645H162Z" transform="translate(446.83199999999994, 72) scale(0.072, -0.072)" /><path d="M144 0H70V492H144ZM107 624Q85 624 69.0 639.5Q53 655 53 677Q53 700 69.0 715.5Q85 731 107 731Q130 731 145.5 715.5Q161 700 161 677Q161 655 145.5 639.5Q130 624 107 624Z" transform="translate(500.1839999999999, 72) scale(0.072, -0.072)" /><path d="M28 76 80 126Q115 89 159.0 68.0Q203 47 258 47Q318 47 356.5 72.5Q395 98 395 138Q395 173 362.5 192.5Q330 212 253 223Q141 239 95.5 271.5Q50 304 50 359Q50 404 76.0 437.5Q102 471 148.0 489.5Q194 508 253 508Q319 508 371.0 484.0Q423 460 463 416L411 366Q381 403 342.0 424.0Q303 445 253 445Q198 445 162.0 422.0Q126 399 126 361Q126 333 156.5 316.5Q187 300 260 290Q376 274 423.5 238.5Q471 203 471 140Q471 94 443.5 58.5Q416 23 368.0 3.5Q320 -16 258 -16Q186 -16 129.5 8.5Q73 33 28 76Z" transform="translate(515.5919999999999, 72) scale(0.072, -0.072)" /><path d="M144 -194H70V492H143V343H125Q134 392 164.5 429.0Q195 466 240.5 487.0Q286 508 339 508Q411 508 467.0 473.5Q523 439 554.5 380.0Q586 321 586 246Q586 170 553.5 111.0Q521 52 463.5 18.0Q406 -16 332 -16Q265 -16 214.5 11.5Q164 39 138.5 86.5Q113 134 120 193L134 213Q138 166 164.0 128.5Q190 91 232.0 70.0Q274 49 324 49Q379 49 420.0 74.5Q461 100 484.5 144.5Q508 189 508 246Q508 303 485.5 347.5Q463 392 423.0 417.5Q383 443 330 443Q276 443 234.0 416.0Q192 389 168.0 341.5Q144 294 144 231Z" transform="translate(552.5999999999999, 72) scale(0.072, -0.072)" /><path d="M144 0H70V720H144Z" transform="translate(598.1759999999999, 72) scale(0.072, -0.072)" /><path d="M487 0H416V96L415 124V308Q415 370 375.0 407.0Q335 444 267 444Q218 444 178.5 423.0Q139 402 109 366L57 416Q98 460 149.5 484.0Q201 508 267 508Q333 508 382.5 483.5Q432 459 459.5 415.0Q487 371 487 311ZM228 -16Q172 -16 129.5 4.5Q87 25 63.5 60.0Q40 95 40 140Q40 192 69.0 228.5Q98 265 148.5 284.0Q199 303 263 303H425V243H273Q206 243 161.5 218.5Q117 194 117 142Q117 98 150.0 72.0Q183 46 237 46Q289 46 331.0 66.5Q373 87 398.5 124.0Q424 161 427 209L457 192Q457 132 427.5 85.0Q398 38 346.0 11.0Q294 -16 228 -16Z" transform="translate(613.584, 72) scale(0.072, -0.072)" /><path d="M441 492H517L267 -89Q246 -138 215.0 -166.0Q184 -194 121 -194H72V-130H121Q153 -130 173.5 -114.0Q194 -98 207 -67L233 -2L20 492H100L286 39H254Z" transform="translate(653.184, 72) scale(0.072, -0.072)" /></g></svg>
